X:1
T:25.   The Soldier's Farewell.
T:Johanna Kinkel
T:Transcribed By  Jennifer Lee
T:25.   The Soldier's Farewell.
T:Public Domain
C:Johanna Kinkel
Z:Public Domain
%%score { ( 1 2 ) | ( 3 4 ) }
L:1/8
M:4/4
K:Bb
V:1 treble nm="Piano" snm="Pno."
V:2 treble 
V:3 bass 
V:4 bass 
V:1
"^Slowly."!p! [DF]2 D"^This song, long a favorite with college singers, is a German contribution, written by Johanna Kinkel (1810-1858).  It is a song that easily leads to part-singing, frequently of an improvised kind."[DF] [DB]3 [DB] | %1
w: How can I bear to|
 [EB]2 [EA]2 z2 [EF]2 | [DF]3 [DB] [Ge]2 [Fd]2 | [Fd]2 [Fc]2 z2 [DB]2 | [DF]3 [EG] [F_A]2 [FA]2 | %5
w: leave thee? One|part- ing kiss I|give thee; And|then what- e'er be-|
 [F_A]2 [EG]2 z2"^cresc." [=EG]2 | [=EG]3 [F=A] [GB]2 [GB]2 | [GB]2 [FA]2 z2!p! [_EF]2 | %8
w: falls me, I|go where hon- or|calls me. Fare-|
[M:3/4] [DF]4 [DB]2 | [Fd]4 [FB]2 | %10
w: well, fare-|well, my|
"^2.  Ne'er more may I behold thee,     Or to this heart enfold thee;     With guns and pennons glancing,     I see the foe advancing.     Farewell, farewell, my own true love;     Farewell, farewell, my own true love." [GB]4 [EG]2 | %11
w: own true|
 [DF]2 z2 [FB]2 | [Fe]4 [Fd]2 | d2 c2 [GB]2 | [FB]4 [EA]2 | [DB]4 z2 |] %16
w: love; Fare-|well, fare-|well, * my|own true|love.|
V:2
 x2 D z x4 | x8 | x8 | x8 | x8 | x8 | x8 | x8 |[M:3/4] x6 | x6 | x6 | x6 | x6 | G4 x2 | x4 x2 | %15
 x6 |] %16
V:3
 [B,,B,]2 [B,,F,][B,,F,] [B,,F,]3 [B,,F,] | [C,F,]2 [C,F,]2 z2 [F,A,]2 | [B,,B,]3 [B,,B,] B,2 B,2 | %3
 [F,B,]2 [F,A,]2 z2 [B,,B,]2 | [B,,B,]3 [B,,B,] [B,,B,]2 [D,B,]2 | [E,B,]2 [E,B,]2 z2 [C,C]2 | %6
 [C,C]3 [C,C] [C,C]2 [=E,C]2 | [F,C]2 [F,C]2 z2 [F,A,]2 |[M:3/4] [B,,B,]4 [B,,F,]2 | %9
 [B,,B,]4 [D,B,]2 | [E,B,]4 [G,B,]2 | B,2 z2 [D,B,]2 | [C,A,]4 [B,,B,]2 | [E,B,]4 [=E,C]2 | %14
 [F,D]4 [F,C]2 | [B,,B,]4 z2 |] %16
V:4
 x8 | x8 | x4 B,2 B,2 | x8 | x8 | x8 | x8 | x8 |[M:3/4] x6 | x6 | x6 | B,2 x2 x2 | x6 | x6 | x6 | %15
 x6 |] %16

